app/img/footer-phone.svg

<svg width="20" height="20" viewBox="0 0 20 20" fill="none" xmlns="http://www.w3.org/2000/svg">
<path d="M8.2643 11.8677C9.32027 12.8797 10.0683 13.5836 10.7282 13.8916C11.2562 14.1996 11.7842 13.9796 12.0922 13.6716C12.4002 13.2756 12.7082 12.9677 13.0602 12.5717C13.6762 11.8677 16.8881 13.0997 17.856 13.2756C18.604 13.4956 19 13.8916 19 14.3756C19 14.9916 19 15.5636 19 16.0916C18.164 17.8955 16.8881 18.9075 14.9521 18.9955C12.1802 19.0835 9.01228 17.8955 5.49238 14.4636C2.10448 10.9437 0.916517 7.8198 1.00451 5.00388C1.00451 3.11194 2.06048 1.79198 3.86443 1C4.39242 1 5.0524 1 5.58039 1C6.10837 1 6.54836 1.48398 6.63635 2.18796C6.94434 3.19994 8.2203 6.32384 7.47233 6.98383C7.16434 7.29182 6.72435 7.59981 6.41636 7.9078C6.10837 8.21579 5.88837 8.69978 6.19637 9.31576C6.54836 10.0637 7.16434 10.7677 8.2643 11.8677Z" stroke="#131413" stroke-width="1.5" stroke-miterlimit="10"/>
</svg>

<svg width="20" height="20" fill="none" xmlns="http://www.w3.org/2000/svg"><path d="M8.264 11.868c1.056 1.012 1.804 1.716 2.464 2.024.528.308 1.056.088 1.364-.22.308-.396.616-.704.968-1.1.616-.704 3.828.528 4.796.704.748.22 1.144.616 1.144 1.1v1.716c-.836 1.803-2.112 2.816-4.048 2.904-2.772.088-5.94-1.1-9.46-4.532-3.388-3.52-4.575-6.644-4.487-9.46 0-1.892 1.055-3.212 2.86-4.004H5.58c.528 0 .968.484 1.056 1.188.308 1.012 1.584 4.136.836 4.796-.308.308-.748.616-1.056.924-.308.308-.528.792-.22 1.408.352.748.968 1.452 2.068 2.552z" stroke="#131413" stroke-width="1.5" stroke-miterlimit="10"/></svg>
